icon/lg/q.svg

<?xml version="1.0" encoding="UTF-8" standalone="no" ?>
<svg viewBox="0 0 256 295" version="1.1" xmlns="http://www.w3.org/2000/svg" xmlns:xlink="http://www.w3.org/1999/xlink" preserveAspectRatio="xMidYMid" height="1em" width="1em">
  <g>
    <path d="M49.0679795,101.515932 C49.1042237,131.989018 49.1470576,162.462105 49.1058711,192.933544 C75.4619528,208.159379 101.798264,223.418163 128.127987,238.691775 C154.456062,223.467587 180.784137,208.2434 207.112211,193.019212 C207.075967,162.546125 207.033133,132.073038 207.07432,101.599952 C180.716591,86.3774118 154.381926,71.1153328 128.052204,55.843369 C101.724129,71.0675563 75.3960543,86.2917438 49.0679795,101.515932" fill="#B7A634"/>
    <path d="M128.412998,78.985254 L128.366869,78.9605422 L128.058794,78.7875588 C108.323858,90.2176435 88.5675053,101.611484 68.8045627,112.992145 C68.7996203,135.830897 68.7963253,158.671297 68.7930305,181.51005 C88.580685,192.90389 108.363398,204.309262 128.124692,215.747585 C133.159333,212.780507 182.319571,184.450767 187.38057,181.542998 C187.38716,158.704246 187.395398,135.863846 187.401988,113.025094 C167.71977,101.713627 148.052381,90.365915 128.412998,78.985254" fill="#F9DF34"/>
    <path d="M92.5873102,126.980737 L94.2397136,129.844024 L91.1062428,131.652936 L95.5609774,139.366349 C95.977785,140.091231 96.3764706,140.503096 96.7570341,140.605239 C97.1375975,140.707382 97.689497,140.549225 98.4127324,140.130771 C98.6532617,139.992383 98.8773164,139.849054 99.0881914,139.700783 C99.297419,139.554159 99.490172,139.400945 99.6680977,139.246084 L101.582447,142.560775 C101.254603,142.829312 100.875687,143.101143 100.445699,143.376269 C100.015712,143.651394 99.5890196,143.911693 99.1672695,144.15387 C98.5049902,144.537729 97.8509482,144.854041 97.2067909,145.106103 C96.5609863,145.358164 95.938246,145.483371 95.3352752,145.483371 C94.7323045,145.483371 94.1606355,145.316977 93.6219157,144.985838 C93.0815485,144.654698 92.5856627,144.097856 92.1342584,143.313665 L86.8277864,134.12248 L84.2363303,135.620022 L82.5822793,132.756735 L85.175383,131.260841 L82.4784893,126.590288 L86.7569456,124.119096 L89.4538394,128.789649 L92.5873102,126.980737" fill="#524739"/>
    <path d="M95.1870037,117.565496 L99.8657931,125.671005 L99.9564034,125.618286 C99.9778205,124.40246 100.290838,123.343142 100.897103,122.445276 C101.50337,121.545762 102.206835,120.863714 103.010796,120.400778 C104.155782,119.738498 105.183797,119.352992 106.098138,119.240964 C107.010832,119.128937 107.837857,119.227785 108.579215,119.53586 C109.320571,119.845583 110.004268,120.346411 110.633598,121.04164 C111.261281,121.736868 111.854367,122.567188 112.411209,123.530953 L117.943383,133.112586 L113.664927,135.583778 L108.585804,126.784689 C107.842799,125.499669 107.088263,124.656169 106.320546,124.255836 C105.552829,123.853855 104.658257,123.949408 103.633537,124.540847 C102.468782,125.21301 101.824624,126.046626 101.702712,127.041693 C101.5808,128.036759 101.977838,129.326721 102.893826,130.914873 L107.60886,139.081337 L103.328756,141.550882 L90.9069,120.035041 L95.1870037,117.565496" fill="#524739"/>
    <path d="M122.114755,125.723723 C123.11641,125.975785 124.220209,125.753378 125.426151,125.056502 C126.289421,124.558968 126.908866,123.913164 127.281192,123.120735 C127.655166,122.329954 127.773783,121.652847 127.635397,121.089416 L131.401492,118.914767 C131.877609,121.130602 131.726042,123.000471 130.943498,124.522725 C130.162602,126.046626 128.887467,127.316818 127.11974,128.338244 C125.89403,129.045005 124.674908,129.488172 123.465673,129.664451 C122.254789,129.840728 121.099919,129.764945 119.999415,129.435453 C118.898911,129.107609 117.872543,128.547472 116.92031,127.758338 C115.969725,126.967557 115.145994,125.970843 114.449118,124.764901 C113.776954,123.600146 113.342024,122.405737 113.142682,121.180026 C112.944986,119.955963 112.986173,118.773085 113.266241,117.63469 C113.544662,116.494647 114.050433,115.433682 114.781905,114.4485 C115.511731,113.464967 116.468906,112.629704 117.655077,111.946007 C118.981284,111.179938 120.284425,110.76972 121.564502,110.713706 C122.84458,110.657693 124.050521,110.878452 125.180679,111.377633 C126.314133,111.875166 127.338853,112.596754 128.258136,113.539102 C129.17742,114.481449 129.943489,115.578658 130.55964,116.829082 L119.32066,123.318431 C120.180635,124.670996 121.111451,125.471662 122.114755,125.723723 L122.114755,125.723723 L122.114755,125.723723 Z M122.218544,114.735158 C121.381634,114.46827 120.440934,114.636311 119.396443,115.239281 C118.712748,115.633025 118.211919,116.077839 117.893959,116.568783 C117.575999,117.061374 117.378304,117.555612 117.304168,118.053145 C117.23168,118.552326 117.248155,119.0235 117.358535,119.469962 C117.468914,119.914776 117.600711,120.293692 117.753925,120.60671 L124.714448,116.588552 C123.887422,115.619845 123.055454,115.002048 122.218544,114.735158 L122.218544,114.735158 L122.218544,114.735158 Z" fill="#524739"/>
    <path d="M130.554697,105.05962 L131.806767,107.230974 L131.897378,107.178255 C131.918795,105.960781 132.241697,104.896521 132.867733,103.985475 C133.493768,103.076077 134.25819,102.359432 135.162646,101.837187 C136.307631,101.176554 137.337295,100.789401 138.249988,100.677374 C139.162681,100.565346 139.989707,100.664194 140.731064,100.973916 C141.472422,101.281992 142.156118,101.784468 142.785448,102.479696 C143.413131,103.174924 144.006216,104.003597 144.563058,104.967362 L150.095233,114.550642 L145.816776,117.020187 L140.737653,108.222745 C139.994649,106.936078 139.240112,106.092578 138.472395,105.692245 C137.706325,105.291912 136.810106,105.385817 135.785386,105.977256 C134.620631,106.651068 133.976474,107.484683 133.854561,108.478102 C133.732649,109.473168 134.129688,110.764778 135.045676,112.351282 L139.760709,120.517746 L135.480606,122.988939 L126.487116,107.408899 L130.554697,105.05962" fill="#524739"/>
    <path d="M189.056038,109.455046 C169.330987,98.102392 149.67513,86.7447956 130.632128,75.6936269 C130.612359,75.6837422 130.548108,75.6458506 130.528338,75.6359658 L130.223558,75.4646299 C128.856165,74.696913 127.188935,74.7100927 125.833073,75.4975791 C106.287596,86.8337585 86.719054,98.1369886 67.1439219,109.423745 C65.771587,110.214525 64.9264394,111.677471 64.9264394,113.262328 L64.9149072,181.238218 C64.9149072,182.821428 65.7617021,184.286021 67.1323897,185.076802 C86.7322337,196.380033 106.327135,207.693147 125.90062,219.039212 C126.587611,219.439545 127.355328,219.63724 128.123045,219.63724 C128.902294,219.63724 129.681543,219.432955 130.376771,219.022737 C133.292778,217.301141 136.225258,215.60755 139.159386,213.915608 C141.235187,212.719551 143.310988,211.521847 145.381847,210.314258 C147.48895,209.083605 173.001531,194.373425 174.016366,193.781987 C179.018058,190.889045 184.021398,187.996104 189.031327,185.114694 C190.405309,184.322265 191.253752,182.85932 191.253752,181.274462 L191.276816,113.296925 C191.276816,111.71042 190.430021,110.245827 189.056038,109.455046 L189.056038,109.455046 L189.056038,109.455046 Z M182.392059,178.709365 C179.400269,180.43261 130.31252,208.788709 128.108218,210.075376 C110.010858,199.587639 91.8970241,189.127909 73.7782476,178.678064 L73.7881323,115.82413 C91.8904342,105.38417 109.986146,94.932677 128.062089,84.4498824 C145.810186,94.7448663 164.07394,105.298501 182.413476,115.858727 L182.392059,178.709365 L182.392059,178.709365 Z" fill="#524839"/>
    <path d="M4.89460674,76.0445362 C4.95226788,123.481529 5.01981378,170.92017 4.95391533,218.35881 C46.043241,242.059185 87.1012649,265.813926 128.149405,289.588436 C169.194248,265.889709 210.239092,242.189334 251.285584,218.490607 C251.227923,171.051967 251.160377,123.614974 251.226276,76.176333 C210.135303,52.4792535 169.078927,28.7195704 128.030787,4.9467077 C86.9859426,28.6454347 45.9410984,52.3458091 4.89460674,76.0445362 L4.89460674,76.0445362 L4.89460674,76.0445362 Z M128.516788,56.2931258 C154.683411,71.4547097 180.887926,86.5734597 207.112211,101.644434 L207.082557,192.935191 C200.339499,196.806725 193.606326,200.69638 186.874801,204.586036 C173.375504,181.233275 159.894331,157.868984 146.413157,134.504691 C133.569551,141.908381 120.725945,149.312071 107.882338,156.715761 C121.361865,180.080053 134.844686,203.444345 148.342334,226.798754 C141.615751,230.718063 134.841391,234.554999 128.134577,238.507259 C101.804854,223.266597 75.4487731,208.072063 49.0828066,192.89071 L49.0976338,101.599952 C75.430651,86.4383678 101.752136,71.2570144 128.045614,56.0278845 L128.457479,56.2585291 L128.516788,56.2931258 L128.516788,56.2931258 Z" fill="#F9DF34"/>
    <path d="M128.149405,294.16014 C127.356975,294.16014 126.566194,293.954208 125.857786,293.543989 C76.1505914,264.75296 38.1584925,242.787362 2.66888688,222.319307 C1.25207039,221.500518 0.378916038,219.98815 0.382210961,218.350573 C0.443167018,174.36501 0.388800804,129.638091 0.336082052,86.3840016 L0.322902363,76.0494786 C0.321254902,74.4151972 1.19276179,72.902828 2.60957829,72.0856873 L125.745758,0.986211362 C127.162575,0.17071815 128.905588,0.17071815 130.322405,0.989506285 C166.9224,22.1873874 210.179784,47.2255002 253.511305,72.2174841 C254.928121,73.0346248 255.801275,74.5469941 255.799627,76.1829228 C255.737024,119.926308 255.79139,164.402813 255.842462,207.416374 L255.857289,218.485665 C255.858936,220.121594 254.985782,221.633963 253.570613,222.451104 L130.434433,293.547284 C129.727672,293.955855 128.938538,294.16014 128.149405,294.16014 L128.149405,294.16014 L128.149405,294.16014 Z M9.52891463,215.719578 C43.8224636,235.50229 80.6185057,256.777602 128.152699,284.306676 L246.708938,215.854669 L246.699053,207.427906 C246.649629,165.275968 246.59691,121.717098 246.651277,78.8155656 C204.982044,54.7807565 163.487444,30.7640695 128.027492,10.2268203 L9.46960603,78.6821212 L9.4794908,86.3741168 C9.53056209,128.766584 9.58492831,172.574221 9.52891463,215.719578 L9.52891463,215.719578 L9.52891463,215.719578 Z M128.134577,243.078963 C127.343796,243.078963 126.553015,242.873031 125.844606,242.462812 C99.5181788,227.223798 73.1637446,212.03256 46.8010731,196.854501 C45.3842567,196.037361 44.5111023,194.526639 44.5111023,192.89071 L44.5259294,101.598304 C44.5259294,99.964023 45.4007312,98.4533011 46.8159002,97.637808 C77.6613132,79.8798255 102.743907,65.4002904 125.753996,52.0706832 C127.157633,51.2601323 128.880877,51.251895 130.291104,52.0443237 L130.701321,52.2766158 C130.717795,52.2848531 130.793579,52.3276871 130.808406,52.3375718 C156.317693,67.1169448 182.756147,82.372434 209.39065,97.6806419 C210.809114,98.4961351 211.683916,100.008504 211.683916,101.646081 L211.655909,192.936839 C211.654261,194.572768 210.777813,196.085137 209.359348,196.898983 C202.619586,200.770516 195.889707,204.656877 189.161476,208.543237 C186.973648,209.810135 184.179554,209.058892 182.915951,206.874359 C170.17943,184.83792 157.457736,162.794892 144.736042,140.746921 L114.127863,158.392876 C126.844615,180.435905 139.566309,202.477286 152.299535,224.51043 C153.561491,226.690021 152.820133,229.479172 150.643837,230.747717 C147.849743,232.375408 145.047412,233.98992 142.245081,235.604433 C138.306002,237.871339 134.368569,240.138245 130.455849,242.444691 C129.740851,242.866441 128.936891,243.078963 128.134577,243.078963 L128.134577,243.078963 L128.134577,243.078963 Z M53.654511,190.248183 C78.4899861,204.549792 103.313929,218.861286 128.118102,233.215613 C131.297703,231.357277 134.490481,229.518711 137.681614,227.680145 C139.154444,226.831702 140.627274,225.98326 142.100105,225.13317 C129.363582,203.095084 116.641888,181.04876 103.921842,159.000789 C103.315576,157.949709 103.152477,156.702581 103.467143,155.531236 C103.781808,154.359891 104.547877,153.36153 105.598958,152.755264 L144.129776,130.544194 C146.315957,129.28224 149.111699,130.033481 150.372006,132.219662 C163.092052,154.264339 175.812099,176.30572 188.545326,198.340512 C193.199403,195.653502 197.85348,192.966493 202.5125,190.287721 L202.538859,104.288608 C177.306347,89.7827137 152.269881,75.3361279 128.052204,61.3063497 C106.23323,73.9423759 82.4669571,87.6607839 53.6693382,104.242479 L53.654511,190.248183 L53.654511,190.248183 Z" fill="#524839"/>
  </g>
</svg>

<svg width="256" height="295" xmlns="http://www.w3.org/2000/svg" preserveAspectRatio="xMidYMid"><path d="M49.068 101.516c.036 30.473.08 60.946.038 91.418a50948.329 50948.329 0 0 1 79.022 45.758l78.984-45.673c-.036-30.473-.079-60.946-.038-91.419a48928.59 48928.59 0 0 1-79.022-45.757l-78.984 45.673" fill="#B7A634"/><path d="m128.413 78.985-.046-.024-.308-.173a27468.105 27468.105 0 0 1-59.254 34.204c-.005 22.839-.009 45.68-.012 68.518a30252.33 30252.33 0 0 1 59.332 34.238c5.034-2.967 54.195-31.297 59.256-34.205l.021-68.518a19008.176 19008.176 0 0 1-58.989-34.04" fill="#F9DF34"/><path d="m92.587 126.98 1.653 2.864-3.134 1.809 4.455 7.713c.417.725.815 1.137 1.196 1.24.38.101.932-.057 1.656-.475a8.81 8.81 0 0 0 .675-.43c.21-.147.402-.3.58-.455l1.914 3.315c-.327.268-.706.54-1.136.815-.43.275-.857.536-1.279.778-.662.384-1.316.7-1.96.952-.646.252-1.269.377-1.872.377a3.221 3.221 0 0 1-1.713-.497c-.54-.331-1.036-.888-1.488-1.672l-5.306-9.192-2.592 1.498-1.654-2.863 2.593-1.496-2.697-4.67 4.279-2.472 2.697 4.67 3.133-1.808M95.187 117.565l4.679 8.106.09-.053c.022-1.216.335-2.275.941-3.173.606-.9 1.31-1.581 2.114-2.044 1.145-.663 2.173-1.048 3.087-1.16.913-.112 1.74-.013 2.481.295.742.31 1.425.81 2.055 1.506.627.695 1.22 1.525 1.777 2.489l5.532 9.582-4.278 2.47-5.08-8.798c-.742-1.285-1.497-2.129-2.264-2.53-.768-.401-1.663-.306-2.687.286-1.165.672-1.81 1.506-1.931 2.5-.122.996.275 2.286 1.19 3.874l4.716 8.166-4.28 2.47-12.422-21.516 4.28-2.47M122.115 125.724c1.001.252 2.105.03 3.311-.667.863-.498 1.483-1.144 1.855-1.936.374-.791.493-1.468.354-2.032l3.766-2.174c.477 2.216.325 4.085-.458 5.608-.78 1.524-2.056 2.794-3.823 3.815-1.226.707-2.445 1.15-3.654 1.326-1.211.177-2.366.1-3.467-.229-1.1-.327-2.126-.888-3.079-1.677-.95-.79-1.774-1.787-2.47-2.993-.673-1.165-1.108-2.36-1.307-3.585a8.82 8.82 0 0 1 .123-3.545 8.812 8.812 0 0 1 1.516-3.187c.73-.983 1.687-1.818 2.873-2.502 1.326-.766 2.63-1.176 3.91-1.232a7.968 7.968 0 0 1 3.616.664c1.133.497 2.158 1.219 3.077 2.161.92.942 1.685 2.04 2.302 3.29l-11.24 6.49c.86 1.352 1.791 2.153 2.795 2.405Zm.104-10.989c-.837-.267-1.778-.099-2.823.504-.683.394-1.184.839-1.502 1.33-.318.492-.516.987-.59 1.484-.072.5-.056.97.055 1.417.11.445.242.824.395 1.137l6.96-4.018c-.827-.97-1.659-1.587-2.495-1.854ZM130.555 105.06l1.252 2.171.09-.053c.022-1.217.345-2.281.97-3.193a7.052 7.052 0 0 1 2.296-2.148c1.145-.66 2.174-1.048 3.087-1.16.913-.112 1.74-.013 2.481.297.741.308 1.425.81 2.054 1.506.628.695 1.221 1.524 1.778 2.487l5.532 9.584-4.278 2.47-5.08-8.798c-.742-1.287-1.497-2.13-2.265-2.53-.766-.401-1.662-.307-2.687.284-1.164.674-1.809 1.508-1.93 2.501-.122.995.275 2.287 1.19 3.873l4.716 8.167-4.28 2.47-8.994-15.58 4.068-2.348" fill="#524739"/><path d="M189.056 109.455a18918.443 18918.443 0 0 1-58.424-33.761c-.02-.01-.084-.048-.104-.058l-.304-.171a4.423 4.423 0 0 0-4.39.033 26580.092 26580.092 0 0 1-58.69 33.926 4.429 4.429 0 0 0-2.218 3.838l-.011 67.976c0 1.583.847 3.048 2.217 3.839 19.6 11.303 39.195 22.616 58.769 33.962a4.431 4.431 0 0 0 4.476-.016 990.265 990.265 0 0 1 8.782-5.107c2.076-1.196 4.152-2.394 6.223-3.602 2.107-1.23 27.62-15.94 28.634-16.532a7102.982 7102.982 0 0 1 15.015-8.667 4.435 4.435 0 0 0 2.223-3.84l.023-67.978a4.432 4.432 0 0 0-2.221-3.842Zm-6.664 69.254c-2.992 1.724-52.08 30.08-54.284 31.366a30156.402 30156.402 0 0 0-54.33-31.397l.01-62.854a26056.188 26056.188 0 0 0 54.274-31.374 19819.24 19819.24 0 0 0 54.351 31.409l-.02 62.85Z" fill="#524839"/><path d="M4.895 76.045c.057 47.437.125 94.875.059 142.314 41.09 23.7 82.147 47.455 123.195 71.23 41.045-23.7 82.09-47.4 123.137-71.098-.058-47.439-.126-94.876-.06-142.315-41.09-23.697-82.147-47.456-123.195-71.23L4.895 76.046Zm123.622-19.752a25579.318 25579.318 0 0 0 78.595 45.351l-.03 91.291a8451.297 8451.297 0 0 0-20.207 11.651c-13.5-23.353-26.98-46.717-40.462-70.081l-38.53 22.21c13.479 23.365 26.962 46.73 40.46 70.084-6.727 3.92-13.502 7.756-20.208 11.708a39961.24 39961.24 0 0 0-79.052-45.616l.015-91.291a35390.488 35390.488 0 0 0 78.948-45.572l.411.23.06.035Z" fill="#F9DF34"/><path d="M128.15 294.16a4.569 4.569 0 0 1-2.292-.616 75322.8 75322.8 0 0 0-123.19-71.225 4.573 4.573 0 0 1-2.286-3.968C.443 174.365.39 129.638.336 86.384L.323 76.049a4.571 4.571 0 0 1 2.287-3.963L125.746.986a4.579 4.579 0 0 1 4.576.004c36.6 21.197 79.858 46.236 123.19 71.227a4.573 4.573 0 0 1 2.288 3.966c-.063 43.743-.009 88.22.042 131.233l.015 11.07a4.575 4.575 0 0 1-2.286 3.965l-123.137 71.096a4.563 4.563 0 0 1-2.285.613ZM9.528 215.72a79099.428 79099.428 0 0 1 118.624 68.587l118.556-68.452-.01-8.427c-.05-42.152-.102-85.71-.048-128.612a77894.477 77894.477 0 0 1-118.624-68.59L9.47 78.683l.01 7.692c.05 42.393.105 86.2.049 129.346Zm118.606 27.359c-.791 0-1.582-.206-2.29-.616A39147.95 39147.95 0 0 0 46.8 196.855a4.575 4.575 0 0 1-2.29-3.964l.015-91.293c0-1.634.875-3.145 2.29-3.96a33622.805 33622.805 0 0 0 78.938-45.567 4.581 4.581 0 0 1 4.537-.027l.41.233a26300.48 26300.48 0 0 0 78.69 45.404 4.574 4.574 0 0 1 2.293 3.965l-.028 91.29a4.575 4.575 0 0 1-2.297 3.963c-6.74 3.872-13.47 7.758-20.198 11.644a4.569 4.569 0 0 1-6.245-1.669 104453 104453 0 0 1-38.18-66.127l-30.608 17.646A101141.6 101141.6 0 0 0 152.3 224.51a4.57 4.57 0 0 1-1.656 6.238c-2.794 1.627-5.597 3.242-8.399 4.856-3.939 2.267-7.876 4.534-11.79 6.84a4.57 4.57 0 0 1-2.32.635Zm-74.48-52.83a40186.547 40186.547 0 0 1 74.463 42.967c3.18-1.859 6.372-3.697 9.564-5.536l4.418-2.547a101170.714 101170.714 0 0 1-38.178-66.132 4.573 4.573 0 0 1 1.677-6.246l38.53-22.21a4.57 4.57 0 0 1 6.243 1.675c12.72 22.044 25.44 44.086 38.173 66.12 4.654-2.686 9.308-5.374 13.968-8.052l.026-86a25992.844 25992.844 0 0 1-74.487-42.982 34191.955 34191.955 0 0 1-74.383 42.936l-.014 86.006Z" fill="#524839"/></svg>
